X:1
T:Pack Up Your Sorrows
M:4/4
L:1/4
K:C
 z E G2| E- D C2| A A A c| A- G z E| z E E E| G2 G G| D4| z E E/2 G3/2|\
 E2E/2-D/2 C| z A A/2 c3/2| A- G F2| z E E/2 F3/2| D2 E D| C4| E| E E2 F-|\
 F E E2| z F F F| G2 F2| z E E E| F3 E| D4| z E2 E| F2 E2| F F F F|\
 G2 F2| z2 E E| D3 D| C4|
